rospo-dark/16x16/panel/bad-signal.svg

<svg height="22" width="22" xmlns="http://www.w3.org/2000/svg"><path d="m11.03125 5c-3.0344 0-5.76595 1.2711381-8.03125 3.015625l8.03125 8.984375c-.03125 0 7.96875-9 7.96875-9-2.2566-1.7251826-4.95765-3-7.96875-3z" fill="#d3dae3" opacity=".3"/><path d="m11 12c-2 0-3.5507814 1-3.5507812 1l3.5507812 4 3.550781-4s-1.550781-1-3.550781-1z" fill="#d3dae3"/></svg>

<svg xmlns="http://www.w3.org/2000/svg" width="22" height="22" version="1.1">
 <defs>
  <style id="current-color-scheme" type="text/css">
   .ColorScheme-Text { color:#d3dae3; } .ColorScheme-Highlight { color:#5294e2; }
  </style>
 </defs>
 <path style="opacity:0.3;fill:currentColor" class="ColorScheme-Text" d="M 11.03125,5 C 7.99685,5 5.2653,6.2711381 3,8.015625 L 11.03125,17 C 11,17 19,8 19,8 16.7434,6.2748174 14.04235,5 11.03125,5 Z"/>
 <path style="fill:currentColor" class="ColorScheme-Text" d="M 11 12 C 9 12 7.4492186 13 7.4492188 13 L 11 17 L 14.550781 13 C 14.550781 13 13 12 11 12 z"/>
</svg>
